!!!COM: Corelli, Arcangelo
!!!OTL: 
!!!ONM: Opus 6, No. 6
!!!OMV: 4
!!!CDT: 1653/2/17/-1713/1/8/
!!!OCY: Italia
**kern	**kern	**kern	**kern	**kern	**kern	**kern
*clefC	*clefG	*clefG	*clefG	*clefC	*clefG	*clefG
*k[b-]	*k[b-]	*k[b-]	*k[b-]	*k[b-]	*k[b-]	*k[b-]
*F:	*F:	*F:	*F:	*F:	*F:	*F:
*M3/8	*M3/8	*M3/8	*M3/8	*M3/8	*M3/8	*M3/8
=1	=1	=1	=1	=1	=1	=1
4.r	4.r	4.r	4.r	8r	8r	4.ff
.	.	.	.	8A	[4ff	.
.	.	.	.	8F	.	.
=2	=2	=2	=2	=2	=2	=2
4.r	4.r	4.r	4.r	8B-	8ff]	4.gg
.	.	.	.	8G	16gg	.
.	.	.	.	.	16ff	.
.	.	.	.	8c	8ee	.
=3	=3	=3	=3	=3	=3	=3
4.r	4.r	4.r	4.r	8F	8ff	8aa
.	.	.	.	8A	8cc	16ff
.	.	.	.	.	.	16gg
.	.	.	.	8F	[8ff	16aa
.	.	.	.	.	.	16ff
=4	=4	=4	=4	=4	=4	=4
4.r	4.r	4.r	4.r	8c	8ff]	8gg
.	.	.	.	8E	[4ee	8ccc
.	.	.	.	8C	.	8cc
=5	=5	=5	=5	=5	=5	=5
4.r	4.r	4.r	4.r	8D	8ee]	4.ff
.	.	.	.	8BB	16dd	.
.	.	.	.	.	16cc	.
.	.	.	.	8GG	8b	.
=6	=6	=6	=6	=6	=6	=6
4.r	4.r	4.r	4.r	8C	8cc	4.ee
.	.	.	.	8c	8ee	.
.	.	.	.	8A	[8aa	.
=7	=7	=7	=7	=7	=7	=7
4.r	4.r	4.r	4.r	8B-	8aa]	8dd
.	.	.	.	8BB-	8dd	16b-
.	.	.	.	.	.	16cc
.	.	.	.	8B-	[8gg	16dd
.	.	.	.	.	.	16b-
=8	=8	=8	=8	=8	=8	=8
4.r	4.r	4.r	4.r	8A	8gg]	8cc
.	.	.	.	8AA	8cc	8ff
.	.	.	.	8A	[8ff	8f
=9	=9	=9	=9	=9	=9	=9
4.r	4.r	4.r	4.r	8G	8ff]	4.b-
.	.	.	.	8c	4ee	.
.	.	.	.	8C	.	.
=10	=10	=10	=10	=10	=10	=10
4.r	4.r	4.r	4.r	8F	8r	4a
.	.	.	.	[4f	8aa	.
.	.	.	.	.	8ff	8a
=11	=11	=11	=11	=11	=11	=11
4.r	4.r	4.r	4.r	8f]	8gg	8b
.	.	.	.	8e	8cc	8g
.	.	.	.	8c	8ee	8cc
=12	=12	=12	=12	=12	=12	=12
4.r	4.r	4.r	4.r	8d	8a	8.ff
.	.	.	.	8B	16dd	.
.	.	.	.	.	16cc	16aa
.	.	.	.	8G	8dd	16gg
.	.	.	.	.	.	16ff
=13	=13	=13	=13	=13	=13	=13
4.r	4.r	4.r	4.r	8c	8r	4ee
.	.	.	.	8E	8g	.
.	.	.	.	8C	[8gg	8gg
=14	=14	=14	=14	=14	=14	=14
4.r	4.r	4.r	4.r	8F	8gg]	4aa
.	.	.	.	8A	8cc	.
.	.	.	.	8F	8ff	8a
=15	=15	=15	=15	=15	=15	=15
4.r	4.r	4.r	4.r	8G	8dd	8b
.	.	.	.	8F	8b	8gg
.	.	.	.	8E	[8cc	8cc
=16	=16	=16	=16	=16	=16	=16
4.r	4.r	4.r	4.r	8F	8cc]	8aa
.	.	.	.	8G	4b	4dd
.	.	.	.	8GG	.	.
=17	=17	=17	=17	=17	=17	=17
4.r	4.r	4.r	4.r	8C	8cc	4cc
.	.	.	.	8E	[4gg	.
.	.	.	.	8C	.	8gg
=18	=18	=18	=18	=18	=18	=18
4.r	4.r	4.r	4.r	8F	8gg]	4aa
.	.	.	.	8A	8cc	.
.	.	.	.	8F	8ff	8a
=19	=19	=19	=19	=19	=19	=19
4.r	4.r	4.r	4.r	8G	8dd	8b
.	.	.	.	8F	8b	8gg
.	.	.	.	8E	[8cc	8cc
=20	=20	=20	=20	=20	=20	=20
4.r	4.r	4.r	4.r	8F	8cc]	8aa
.	.	.	.	8G	4b	4dd
.	.	.	.	8GG	.	.
=21	=21	=21	=21	=21	=21	=21
4.r	4.r	8r	4.cc	4.C	8r	4.cc
.	.	[4cc	.	.	[4cc	.
=22	=22	=22	=22	=22	=22	=22
4.r	4.r	8cc]	4dd	4.r	8cc]	4dd
.	.	8f	.	.	8f	.
.	.	[8b-	8d	.	[8b-	8d
=23	=23	=23	=23	=23	=23	=23
4.r	4.c	8b-]	8e	4.c	8b-]	8e
.	.	[4a	8c	.	[4a	8c
.	.	.	8cc	.	.	8cc
=24	=24	=24	=24	=24	=24	=24
4.r	8d	8a]	[4.b-	8d	8a]	[4.b-
.	8e	8g	.	8e	8g	.
.	8c	8e	.	8c	8e	.
=25	=25	=25	=25	=25	=25	=25
8r	8f	8f	8b-]	8f	8f	8b-]
[4F	4F	4c	8a	[4F	4c	8a
.	.	.	8f	.	.	8f
=26	=26	=26	=26	=26	=26	=26
8F]	8r	8r	8g	8F]	8r	8g
[4E	8e	8g	8c	[4E	8g	8c
.	8g	8cc	8cc	.	8cc	8cc
=27	=27	=27	=27	=27	=27	=27
8E]	4f	8a	[4.ff	8E]	8a	[4.ff
8D	.	8f	.	8D	8f	.
8BB	8g	8dd	.	8BB	8dd	.
=28	=28	=28	=28	=28	=28	=28
8C	4.g	8g	8ff]	8C	8g	8ff]
4CC	.	[4cc	8ee	4CC	[4cc	8ee
.	.	.	8cc	.	.	8cc
=29	=29	=29	=29	=29	=29	=29
4.G	8r	8cc]	8dd	4.G	8cc]	8dd
.	8d	8b-	8g	.	8b-	8g
.	8d	8g	[8gg	.	8g	[8gg
=30	=30	=30	=30	=30	=30	=30
4.D	4.d	8a	8gg]	4.D	8a	8gg]
.	.	8d	8ff	.	8d	8ff
.	.	[8dd	8dd	.	[8dd	8dd
=31	=31	=31	=31	=31	=31	=31
4A	8r	8dd]	8ee	4A	8dd]	8ee
.	8a	8cc	8a	.	8cc	8a
8A	8cc	8a	[8aa	8A	8a	[8aa
=32	=32	=32	=32	=32	=32	=32
8D	4f	8b-	8aa]	8D	8b-	8aa]
8d	.	[4bb-	8dd	8d	[4bb-	8dd
8e	8r	.	8gg	8e	.	8gg
=33	=33	=33	=33	=33	=33	=33
8f	8r	8bb-]	8cc	8f	8bb-]	8cc
8A	8cc	8aa	[4ff	8A	8aa	[4ff
8B-	8dd	8gg	.	8B-	8gg	.
=34	=34	=34	=34	=34	=34	=34
8c	8cc	8aa	8ff]	8c	8aa	8ff]
4C	4b-	4gg	4ee	4C	4gg	4ee
=35	=35	=35	=35	=35	=35	=35
4F	4a	8ff	4ff	4F	8ff	4ff
.	.	[4cc	.	.	[4cc	.
8A	8f	.	8cc	8A	.	8cc
=36	=36	=36	=36	=36	=36	=36
4B-	8f	8cc]	4dd	4B-	8cc]	4dd
.	8d	8f	.	.	8f	.
8B-	8g	8b-	8d	8B-	8b-	8d
=37	=37	=37	=37	=37	=37	=37
8c	4g	8g	8e	8c	8g	8e
8B-	.	8e	8cc	8B-	8e	8cc
8A	8c	[8f	8f	8A	[8f	8f
=38	=38	=38	=38	=38	=38	=38
8B-	8d	8f]	8dd	8B-	8f]	8dd
8c	4c	4e	4g	8c	4e	4g
8C	.	.	.	8C	.	.
=39	=39	=39	=39	=39	=39	=39
4F	4A	8f	4f	4F	8f	4f
.	.	[4cc	.	.	[4cc	.
8AA	8f	.	8cc	8AA	.	8cc
=40	=40	=40	=40	=40	=40	=40
4BB-	8f	8cc]	4dd	4BB-	8cc]	4dd
.	8d	8f	.	.	8f	.
8BB-	8g	8b-	8d	8BB-	8b-	8d
=41	=41	=41	=41	=41	=41	=41
8C	4f	8g	8e	8C	8g	8e
8BB-	.	8e	8cc	8BB-	8e	8cc
8AA	8c	[8f	8f	8AA	[8f	8f
=42	=42	=42	=42	=42	=42	=42
8BB-	8d	8f]	8dd	8BB-	8f]	8dd
8C	4c	4e	4g	8C	4e	4g
8CC	.	.	.	8CC	.	.
=43	=43	=43	=43	=43	=43	=43
4.FF	4.A	4.f	4.f	4.FF	4.f	4.f
=44	=44	=44	=44	=44	=44	=44
4.r	4.r	4.r	4.r	4f	4.r	16ff
.	.	.	.	.	.	16cc
.	.	.	.	.	.	16ff
.	.	.	.	.	.	16aa
.	.	.	.	8r	.	16gg
.	.	.	.	.	.	16ff
=45	=45	=45	=45	=45	=45	=45
4.r	4.r	4.r	4.r	4e	4.r	16gg
.	.	.	.	.	.	16cc
.	.	.	.	.	.	16gg
.	.	.	.	.	.	16bb-
.	.	.	.	8r	.	16aa
.	.	.	.	.	.	16gg
=46	=46	=46	=46	=46	=46	=46
4.r	4.r	4.r	4.r	8f	16ff	8aa
.	.	.	.	.	16cc	.
.	.	.	.	8A	16ff	[4ff
.	.	.	.	.	16aa	.
.	.	.	.	8F	16gg	.
.	.	.	.	.	16ff	.
=47	=47	=47	=47	=47	=47	=47
4.r	4.r	4.r	4.r	8B-	16gg	8ff]
.	.	.	.	.	16cc	.
.	.	.	.	8G	16gg	4ee
.	.	.	.	.	16bb-	.
.	.	.	.	8c	16aa	.
.	.	.	.	.	16gg	.
=48	=48	=48	=48	=48	=48	=48
4.r	4.r	8c	16r	4F	8aa	16ff
.	.	.	16cc	.	.	16cc
.	.	8f	16a	.	8f	16a
.	.	.	16cc	.	.	16cc
.	.	8e	16g	8r	8e	16g
.	.	.	16cc	.	.	16cc
=49	=49	=49	=49	=49	=49	=49
8F	8c	4f	16a	8F	4f	16a
.	.	.	16cc	.	.	16cc
8E	8c	.	16g	8E	.	16g
.	.	.	16cc	.	.	16cc
8D	8c	8r	16f	8D	8r	16f
.	.	.	16cc	.	.	16cc
=50	=50	=50	=50	=50	=50	=50
4C	4c	8c	16e	4C	8c	16e
.	.	.	16cc	.	.	16cc
.	.	8f	16a	.	8f	16a
.	.	.	16cc	.	.	16cc
8r	8r	8e	16g	8r	8e	16g
.	.	.	16cc	.	.	16cc
=51	=51	=51	=51	=51	=51	=51
8F	8c	4f	16a	8F	4f	16a
.	.	.	16cc	.	.	16cc
8E	8c	.	16g	8E	.	16g
.	.	.	16cc	.	.	16cc
8D	8c	8r	16f	8D	8r	16f
.	.	.	16cc	.	.	16cc
=52	=52	=52	=52	=52	=52	=52
4C	4c	8g	16e	4C	8g	16e
.	.	.	16gg	.	.	16gg
.	.	8cc	16ee	.	8cc	16ee
.	.	.	16gg	.	.	16gg
8r	8r	8b	16dd	8r	8b	16dd
.	.	.	16gg	.	.	16gg
=53	=53	=53	=53	=53	=53	=53
8c	8g	4cc	16ee	8c	4cc	16ee
.	.	.	16gg	.	.	16gg
8B	8g	.	16dd	8B	.	16dd
.	.	.	16gg	.	.	16gg
8A	8g	8r	16cc	8A	8r	16cc
.	.	.	16gg	.	.	16gg
=54	=54	=54	=54	=54	=54	=54
4G	4g	8g	16b	4G	8g	16b
.	.	.	16gg	.	.	16gg
.	.	8cc	16ee	.	8cc	16ee
.	.	.	16gg	.	.	16gg
8r	8r	8b	16dd	8r	8b	16dd
.	.	.	16gg	.	.	16gg
=55	=55	=55	=55	=55	=55	=55
8c	8g	4cc	16ee	8c	4cc	16ee
.	.	.	16gg	.	.	16gg
8B	8g	.	16dd	8B	.	16dd
.	.	.	16gg	.	.	16gg
8A	8g	8r	16cc	8A	8r	16cc
.	.	.	16gg	.	.	16gg
=56	=56	=56	=56	=56	=56	=56
4G	4g	8g	16b	4G	8g	16b
.	.	.	16aa	.	.	16aa
.	.	8dd	16ff	.	8dd	16ff
.	.	.	16aa	.	.	16aa
8r	8r	8cc#	16ee	8r	8cc#	16ee
.	.	.	16aa	.	.	16aa
=57	=57	=57	=57	=57	=57	=57
8d	8a	4dd	16ff	8d	4dd	16ff
.	.	.	16aa	.	.	16aa
8c	8a	.	16ee	8c	.	16ee
.	.	.	16aa	.	.	16aa
8B-	8a	8r	16dd	8B-	8r	16dd
.	.	.	16aa	.	.	16aa
=58	=58	=58	=58	=58	=58	=58
4A	4a	8a	16cc#	4A	8a	16cc#
.	.	.	16aa	.	.	16aa
.	.	8dd	16ff	.	8dd	16ff
.	.	.	16aa	.	.	16aa
8r	8r	8cc#	16ee	8r	8cc#	16ee
.	.	.	16aa	.	.	16aa
=59	=59	=59	=59	=59	=59	=59
8d	8a	4dd	16ff	8d	4dd	16ff
.	.	.	16aa	.	.	16aa
8c	8a	.	16ee	8c	.	16ee
.	.	.	16aa	.	.	16aa
8B-	8a	8r	16dd	8B-	8r	16dd
.	.	.	16aa	.	.	16aa
=60	=60	=60	=60	=60	=60	=60
4A	4a	8r	8cc#	4A	8r	8cc#
.	.	8a	[4aa	.	8a	[4aa
8F	8d	8dd	.	8F	8dd	.
=61	=61	=61	=61	=61	=61	=61
4G	4d	8b-	8aa]	4G	8b-	8aa]
.	.	8gg	8dd	.	8gg	8dd
8G	8e	8bb-	8gg	8G	8bb-	8gg
=62	=62	=62	=62	=62	=62	=62
4A	4e	4cc#	4gg	4A	4cc#	4gg
[8G	[8b-	[8dd	[8ff	[8G	[8dd	[8ff
=63	=63	=63	=63	=63	=63	=63
8G]	8b-]	8dd]	8ff]	8G]	8dd]	8ff]
4A	8e	4cc#	4ee	4A	4cc#	4ee
.	8a	.	.	.	.	.
=64	=64	=64	=64	=64	=64	=64
4D	4a	4dd	4dd	8D	4dd	16dd
.	.	.	.	.	.	16aa
.	.	.	.	8d	.	16ff
.	.	.	.	.	.	16aa
8r	8r	8r	8r	8c#	8r	16ee
.	.	.	.	.	.	16aa
=65	=65	=65	=65	=65	=65	=65
8r	8r	8r	8r	8d	8r	16ff
.	.	.	.	.	.	16aa
8F	8a	8dd	8ff	8F	8dd	16ff
.	.	.	.	.	.	16aa
8A	8a	8cc#	8ee	8A	8cc#	16ee
.	.	.	.	.	.	16aa
=66	=66	=66	=66	=66	=66	=66
4D	4a	4dd	4ff	8D	4dd	16ff
.	.	.	.	.	.	16ddd
.	.	.	.	8G	.	16bb-
.	.	.	.	.	.	16ddd
8r	8r	8r	8r	8F#	8r	16aa
.	.	.	.	.	.	16ddd
=67	=67	=67	=67	=67	=67	=67
8r	8r	8r	8r	8G	8r	16bb-
.	.	.	.	.	.	16ddd
8BB-	8d	8gg	8bb-	8BB-	8gg	16bb-
.	.	.	.	.	.	16ddd
8D	8d	8ff#	8aa	8D	8ff#	16aa
.	.	.	.	.	.	16ddd
=68	=68	=68	=68	=68	=68	=68
4GG	4d	4gg	4bb-	8GG	4gg	16bb-
.	.	.	.	.	.	16eee
.	.	.	.	8A	.	16ccc
.	.	.	.	.	.	16eee
8r	8r	8r	8r	8G#	8r	16bb
.	.	.	.	.	.	16eee
=69	=69	=69	=69	=69	=69	=69
8r	8r	8r	8r	8A	8r	16ccc
.	.	.	.	.	.	16eee
8C	8e	8aa	8ccc	8C	8aa	16ccc
.	.	.	.	.	.	16eee
8E	8e	8gg#	8bb	8E	8gg#	16bb
.	.	.	.	.	.	16eee
=70	=70	=70	=70	=70	=70	=70
8AA	8e	8aa	8ccc	8AA	8aa	8ccc
8A	8a	8cc	8ff	8A	8cc	8ff
8G	8e	8b	8ee	8G	8b	8ee
=71	=71	=71	=71	=71	=71	=71
8F	8r	4a	8r	8F	4a	8r
8F	8f	.	8dd	8F	.	8dd
8E	8c	8g	8cc	8E	8g	8cc
=72	=72	=72	=72	=72	=72	=72
8D	8r	4f	8r	8D	4f	8r
8D	8d	.	8b	8D	.	8b
8C	8A	8e	8a	8C	8e	8a
=73	=73	=73	=73	=73	=73	=73
8G#	4B	8b	8.ee	8G#	8b	8.ee
8E	.	8g#	.	8E	8g#	.
.	.	.	16dd	.	.	16dd
8A	8c	[8a	16cc	8A	[8a	16cc
.	.	.	16b	.	.	16b
=74	=74	=74	=74	=74	=74	=74
8D	8f	8a]	16cc	8D	8a]	16cc
.	.	.	16dd	.	.	16dd
8E	8B	4g#	4b	8E	4g#	4b
8EE	8e	.	.	8EE	.	.
=75	=75	=75	=75	=75	=75	=75
8AA	8e	8a	8a	8AA	8a	8a
8A	8a	8cc	8ff	8A	8cc	8ff
8G	8e	8b	8ee	8G	8b	8ee
=76	=76	=76	=76	=76	=76	=76
8F	8r	4a	8r	8F	4a	8r
8F	8f	.	8dd	8F	.	8dd
8E	8c	8g	8cc	8E	8g	8cc
=77	=77	=77	=77	=77	=77	=77
8D	8r	4f	8r	8D	4f	8r
8D	8d	.	8b	8D	.	8b
8C	8A	8e	8a	8C	8e	8a
=78	=78	=78	=78	=78	=78	=78
8G#	4B	8b	8.ee	8G#	8b	8.ee
8E	.	8g#	.	8E	8g#	.
.	.	.	16dd	.	.	16dd
8A	8c	[8a	16cc	8A	[8a	16cc
.	.	.	16b	.	.	16b
=79	=79	=79	=79	=79	=79	=79
8D	8f	8a]	16cc	8D	8a]	16cc
.	.	.	16dd	.	.	16dd
8E	8B	4g#	4b	8E	4g#	4b
8EE	8e	.	.	8EE	.	.
=80	=80	=80	=80	=80	=80	=80
4.AA	4.e	4.a	4.a	4.AA	4.a	4.a
=81	=81	=81	=81	=81	=81	=81
4.r	4.r	4.r	4.r	8r	8r	4.ff
.	.	.	.	8A	[4ff	.
.	.	.	.	8F	.	.
=82	=82	=82	=82	=82	=82	=82
4.r	4.r	4.r	4.r	8B-	8ff]	4.gg
.	.	.	.	8G	16gg	.
.	.	.	.	.	16ff	.
.	.	.	.	8c	8ee	.
=83	=83	=83	=83	=83	=83	=83
4.r	4.r	4.r	4.r	8F	8ff	8aa
.	.	.	.	8A	8cc	16ff
.	.	.	.	.	.	16gg
.	.	.	.	8F	[8ff	16aa
.	.	.	.	.	.	16ff
=84	=84	=84	=84	=84	=84	=84
4.r	4.r	4.r	4.r	8c	8ff]	8gg
.	.	.	.	8E	[4ee	8ccc
.	.	.	.	8C	.	8cc
=85	=85	=85	=85	=85	=85	=85
4.r	4.r	4.r	4.r	8D	8ee]	4.ff
.	.	.	.	8BB	16dd	.
.	.	.	.	.	16cc	.
.	.	.	.	8GG	8b	.
=86	=86	=86	=86	=86	=86	=86
4.r	4.r	4.r	4.r	8C	8cc	4.ee
.	.	.	.	8c	8ee	.
.	.	.	.	8A	[8aa	.
=87	=87	=87	=87	=87	=87	=87
4.r	4.r	4.r	4.r	8B-	8aa]	8dd
.	.	.	.	8BB-	8dd	16b-
.	.	.	.	.	.	16cc
.	.	.	.	8B-	[8gg	16dd
.	.	.	.	.	.	16b-
=88	=88	=88	=88	=88	=88	=88
4.r	4.r	4.r	4.r	8A	8gg]	8cc
.	.	.	.	8AA	8cc	8ff
.	.	.	.	8A	[8ff	8f
=89	=89	=89	=89	=89	=89	=89
4.r	4.r	4.r	4.r	8G	8ff]	4.b-
.	.	.	.	8c	4ee	.
.	.	.	.	8C	.	.
=90	=90	=90	=90	=90	=90	=90
4.r	4.r	4.r	4.r	8F	8r	4a
.	.	.	.	[4f	8aa	.
.	.	.	.	.	8ff	8a
=91	=91	=91	=91	=91	=91	=91
4.r	4.r	4.r	4.r	8f]	8gg	8b
.	.	.	.	8e	8cc	8g
.	.	.	.	8c	8ee	8cc
=92	=92	=92	=92	=92	=92	=92
4.r	4.r	4.r	4.r	8d	8a	8.ff
.	.	.	.	8B	16dd	.
.	.	.	.	.	16cc	16aa
.	.	.	.	8G	8dd	16gg
.	.	.	.	.	.	16ff
=93	=93	=93	=93	=93	=93	=93
4.r	4.r	4.r	4.r	8c	8r	4ee
.	.	.	.	8E	8g	.
.	.	.	.	8C	[8gg	8gg
=94	=94	=94	=94	=94	=94	=94
4.r	4.r	4.r	4.r	8F	8gg]	4aa
.	.	.	.	8A	8cc	.
.	.	.	.	8F	8ff	8a
=95	=95	=95	=95	=95	=95	=95
4.r	4.r	4.r	4.r	8G	8dd	8b
.	.	.	.	8F	8b	8gg
.	.	.	.	8E	[8cc	8cc
=96	=96	=96	=96	=96	=96	=96
4.r	4.r	4.r	4.r	8F	8cc]	8aa
.	.	.	.	8G	4b	4dd
.	.	.	.	8GG	.	.
=97	=97	=97	=97	=97	=97	=97
4C	4g	4e	16cc	4C	4cc	16cc
.	.	.	16e	.	.	16e
.	.	.	16g	.	.	16g
.	.	.	16cc	.	.	16cc
8r	8r	8r	16e	8r	8r	16e
.	.	.	16g	.	.	16g
=98	=98	=98	=98	=98	=98	=98
8E	8c	16g	4c	8E	16g	4c
.	.	16cc	.	.	16cc	.
8E	8c	16g	.	8E	16g	.
.	.	16e	.	.	16e	.
8E	8c	16g	8r	8E	16g	8r
.	.	16cc	.	.	16cc	.
=99	=99	=99	=99	=99	=99	=99
4F	4c	4a	16ff	4F	4a	16ff
.	.	.	16a	.	.	16a
.	.	.	16cc	.	.	16cc
.	.	.	16ff	.	.	16ff
8r	8r	8r	16a	8r	8r	16a
.	.	.	16cc	.	.	16cc
=100	=100	=100	=100	=100	=100	=100
8AA	8f	16cc	4f	8AA	16cc	4f
.	.	16ff	.	.	16ff	.
8AA	8f	16cc	.	8AA	16cc	.
.	.	16a	.	.	16a	.
8AA	8f	16cc	8r	8AA	16cc	8r
.	.	16ff	.	.	16ff	.
=101	=101	=101	=101	=101	=101	=101
8BB-	8f	4dd	16bb-	8BB-	4dd	16bb-
.	.	.	16b-	.	.	16b-
8BB-	8B-	.	16dd	8BB-	.	16dd
.	.	.	16ff	.	.	16ff
8BB-	8r	8r	16b-	8BB-	8r	16b-
.	.	.	16dd	.	.	16dd
=102	=102	=102	=102	=102	=102	=102
8BB	8g	16dd	4g	8BB	16dd	4g
.	.	16gg	.	.	16gg	.
8BB	8g	16dd	.	8BB	16dd	.
.	.	16b	.	.	16b	.
8BB	8g	16dd	8r	8BB	16dd	8r
.	.	16gg	.	.	16gg	.
=103	=103	=103	=103	=103	=103	=103
8C	8g	4ee	16ccc	8C	4ee	16ccc
.	.	.	16cc	.	.	16cc
8C	8c	.	16ee	8C	.	16ee
.	.	.	16gg	.	.	16gg
8C	8r	8r	16cc	8C	8r	16cc
.	.	.	16ee	.	.	16ee
=104	=104	=104	=104	=104	=104	=104
8C#	8a	16ee	4a	8C#	16ee	4a
.	.	16aa	.	.	16aa	.
8C#	8a	16ee	.	8C#	16ee	.
.	.	16cc#	.	.	16cc#	.
8C#	8a	16ee	8r	8C#	16ee	8r
.	.	16aa	.	.	16aa	.
=105	=105	=105	=105	=105	=105	=105
8D	8a	4ff	16ddd	8D	4ff	16ddd
.	.	.	16dd	.	.	16dd
8D	8d	.	16ff	8D	.	16ff
.	.	.	16aa	.	.	16aa
8D	8r	8r	16dd	8D	8r	16dd
.	.	.	16ff	.	.	16ff
=106	=106	=106	=106	=106	=106	=106
8D	8b-	16ff	4b-	8D	16ff	4b-
.	.	16bb-	.	.	16bb-	.
8D	8b-	16ff	.	8D	16ff	.
.	.	16dd	.	.	16dd	.
8D	8b-	16ff	8r	8D	16ff	8r
.	.	16bb-	.	.	16bb-	.
=107	=107	=107	=107	=107	=107	=107
8E	8b-	4gg	16ee	8E	4gg	16ee
.	.	.	16gg	.	.	16gg
8E	8e	.	16ccc	8E	.	16ccc
.	.	.	16gg	.	.	16gg
8E	8r	8r	16ee	8E	8r	16ee
.	.	.	16gg	.	.	16gg
=108	=108	=108	=108	=108	=108	=108
8E	8cc	16gg	4cc	8E	16gg	4cc
.	.	16ccc	.	.	16ccc	.
8E	8cc	16gg	.	8E	16gg	.
.	.	16ee	.	.	16ee	.
8E	8cc	16gg	8r	8E	16gg	8r
.	.	16ccc	.	.	16ccc	.
=109	=109	=109	=109	=109	=109	=109
4F	4cc	16aa	16ff	4F	16aa	16ff
.	.	16f	16a	.	16f	16a
.	.	16a	16cc	.	16a	16cc
.	.	16f	16a	.	16f	16a
8r	8r	16a	16cc	8r	16a	16cc
.	.	16f	16a	.	16f	16a
=110	=110	=110	=110	=110	=110	=110
4F	4f	16b-	16dd	4F	16b-	16dd
.	.	16f	16b-	.	16f	16b-
.	.	16b-	16dd	.	16b-	16dd
.	.	16f	16b-	.	16f	16b-
8r	8r	16b-	16dd	8r	16b-	16dd
.	.	16f	16b-	.	16f	16b-
=111	=111	=111	=111	=111	=111	=111
4FF	4f	16a	16cc	4FF	16a	16cc
.	.	16f	16a	.	16f	16a
.	.	16a	16cc	.	16a	16cc
.	.	16f	16a	.	16f	16a
8r	8r	16a	16cc	8r	16a	16cc
.	.	16f	16a	.	16f	16a
=112	=112	=112	=112	=112	=112	=112
4F	4f	16b-	16dd	4F	16b-	16dd
.	.	16f	16b-	.	16f	16b-
.	.	16b-	16dd	.	16b-	16dd
.	.	16f	16b-	.	16f	16b-
8r	8r	16b-	16dd	8r	16b-	16dd
.	.	16f	16b-	.	16f	16b-
=113	=113	=113	=113	=113	=113	=113
4FF	4f	4a	16cc	4FF	4a	16cc
.	.	.	16ff	.	.	16ff
.	.	.	16dd	.	.	16dd
.	.	.	16ff	.	.	16ff
8r	8r	8r	16cc	8r	8r	16cc
.	.	.	16ff	.	.	16ff
=114	=114	=114	=114	=114	=114	=114
4.r	4.r	8b-	16dd	4.r	8b-	16dd
.	.	.	16ff	.	.	16ff
.	.	8a	16cc	.	8a	16cc
.	.	.	16ff	.	.	16ff
.	.	8g	16b-	.	8g	16b-
.	.	.	16ff	.	.	16ff
=115	=115	=115	=115	=115	=115	=115
4F	4f	4f	16a	4F	4f	16a
.	.	.	16ff	.	.	16ff
.	.	.	16dd	.	.	16dd
.	.	.	16ff	.	.	16ff
8r	8r	8r	16cc	8r	8r	16cc
.	.	.	16ff	.	.	16ff
=116	=116	=116	=116	=116	=116	=116
4.r	4.r	8b-	16dd	4.r	8b-	16dd
.	.	.	16ff	.	.	16ff
.	.	8a	16cc	.	8a	16cc
.	.	.	16ff	.	.	16ff
.	.	8g	16b-	.	8g	16b-
.	.	.	16ff	.	.	16ff
=117	=117	=117	=117	=117	=117	=117
4F	4f	4f	16a	4F	4f	16a
.	.	.	16cc	.	.	16cc
.	.	.	16a	.	.	16a
.	.	.	16cc	.	.	16cc
8r	8r	8r	16g	8r	8r	16g
.	.	.	16cc	.	.	16cc
=118	=118	=118	=118	=118	=118	=118
4.r	4.r	8f	16a	4.r	8f	16a
.	.	.	16cc	.	.	16cc
.	.	8e	16g	.	8e	16g
.	.	.	16cc	.	.	16cc
.	.	8d	16f	.	8d	16f
.	.	.	16cc	.	.	16cc
=119	=119	=119	=119	=119	=119	=119
4C	4c	4c	16e	4C	4c	16e
.	.	.	16cc	.	.	16cc
.	.	.	16a	.	.	16a
.	.	.	16cc	.	.	16cc
8r	8r	8r	16g	8r	8r	16g
.	.	.	16cc	.	.	16cc
=120	=120	=120	=120	=120	=120	=120
4.r	4.r	8f	16a	4.r	8f	16a
.	.	.	16cc	.	.	16cc
.	.	8e	16g	.	8e	16g
.	.	.	16cc	.	.	16cc
.	.	8d	16f	.	8d	16f
.	.	.	16cc	.	.	16cc
=121	=121	=121	=121	=121	=121	=121
8C	4c	16c	8e	8C	16c	8e
.	.	16cc	.	.	16cc	.
8A	.	16ff	8cc	8A	16ff	8cc
.	.	16aa	.	.	16aa	.
8AA	8r	16ff	8A	8AA	16ff	8A
.	.	16cc	.	.	16cc	.
=122	=122	=122	=122	=122	=122	=122
4BB-	8d	16dd	8r	4BB-	16dd	8r
.	.	16ff	.	.	16ff	.
.	8g	16b-	8dd	.	16b-	8dd
.	.	16dd	.	.	16dd	.
8GG	8r	16gg	8B-	8GG	16gg	8B-
.	.	16dd	.	.	16dd	.
=123	=123	=123	=123	=123	=123	=123
4C	8e	16ee	8r	4C	16ee	8r
.	.	16gg	.	.	16gg	.
.	8a	16cc	8ee	.	16cc	8ee
.	.	16ee	.	.	16ee	.
8AA	8r	16aa	8c	8AA	16aa	8c
.	.	16ee	.	.	16ee	.
=124	=124	=124	=124	=124	=124	=124
4D	8f	16ff	8r	4D	16ff	8r
.	.	16aa	.	.	16aa	.
.	8b-	16dd	8ff	.	16dd	8ff
.	.	16ff	.	.	16ff	.
8BB-	8r	16bb-	8d	8BB-	16bb-	8d
.	.	16ff	.	.	16ff	.
=125	=125	=125	=125	=125	=125	=125
4E	8g	16gg	8r	4E	16gg	8r
.	.	16bb-	.	.	16bb-	.
.	8cc	16ee	8gg	.	16ee	8gg
.	.	16gg	.	.	16gg	.
8C	8r	16ccc	8e	8C	16ccc	8e
.	.	16gg	.	.	16gg	.
=126	=126	=126	=126	=126	=126	=126
4F	4cc	4aa	4f	8F	8aa	8r
.	.	.	.	8f	4f	8aa
8r	8r	8r	8r	8f	.	8ddd
=127	=127	=127	=127	=127	=127	=127
4.r	4.r	4.r	4.r	8f	8r	8gg
.	.	.	.	16e	8gg	8cc
.	.	.	.	16d	.	.
.	.	.	.	8e	8cc	8ccc
=128	=128	=128	=128	=128	=128	=128
4.r	4.r	4.r	4.r	8e	8ff	8r
.	.	.	.	8d	4b-	8ff
.	.	.	.	8d	.	8bb-
=129	=129	=129	=129	=129	=129	=129
4.r	4.r	4.r	4.r	8d	8r	8ee
.	.	.	.	16c	8ee	8a
.	.	.	.	16B-	.	.
.	.	.	.	8c	8a	8aa
=130	=130	=130	=130	=130	=130	=130
8r	4.r	4.r	8r	8c	8dd	8r
8B-	.	.	8dd	8B-	4g	8dd
8B-	.	.	8gg	8B-	.	8gg
=131	=131	=131	=131	=131	=131	=131
8B-	8r	8r	8cc	8B-	8r	8cc
4A	8f	8cc	8f	8A	8cc	8f
.	8f	8ff	8ff	8A	8ff	8ff
=132	=132	=132	=132	=132	=132	=132
4G	4g	4ee	4bb-	4G	4ee	4bb-
8F	8cc	[8ff	[8aa	8F	[8ff	[8aa
=133	=133	=133	=133	=133	=133	=133
8BB-	8dd	8ff]	8aa]	8BB-	8ff]	8aa]
4C	8g	4ee	4gg	4C	4ee	4gg
.	8cc	.	.	.	.	.
=134	=134	=134	=134	=134	=134	=134
4FF	4a	4ff	4ff	8FF	4.ff	8ff
.	.	.	.	8F	.	8a
8r	8r	8r	8r	8F	.	8dd
=135	=135	=135	=135	=135	=135	=135
4.r	4.r	4.r	4.r	8F	8r	8g
.	.	.	.	16E	8g	8c
.	.	.	.	16D	.	.
.	.	.	.	8E	8c	8cc
=136	=136	=136	=136	=136	=136	=136
4.r	4.r	4.r	4.r	8E	8f	8r
.	.	.	.	8D	4B-	8f
.	.	.	.	8D	.	8b-
=137	=137	=137	=137	=137	=137	=137
4.r	4.r	4.r	4.r	8D	8r	8e
.	.	.	.	16C	8e	8A
.	.	.	.	16BB-	.	.
.	.	.	.	8C	8A	8a
=138	=138	=138	=138	=138	=138	=138
8r	4.r	4.r	8r	8C	8d	8r
8BB-	.	.	8d	8BB-	4G	8d
8BB-	.	.	8g	8BB-	.	8g
=139	=139	=139	=139	=139	=139	=139
8BB-	8r	8r	8c	8BB-	8r	8c
4AA	8f	8a	8cc	8AA	8a	8cc
.	8f	8cc	8ff	8AA	8cc	8ff
=140	=140	=140	=140	=140	=140	=140
4GG	4g	4e	4b-	4GG	4e	4b-
[8FF	[8c	[8f	[8a	[8FF	[8f	[8a
=141	=141	=141	=141	=141	=141	=141
8FF]	8c]	8f]	8a]	8FF]	8f]	8a]
4C	4c	4e	4g	4C	4e	4g
=142	=142	=142	=142	=142	=142	=142
4FF	4A	4f	4f	4FF	4f	4f
8BB-	8f	8f	8dd	8BB-	8f	8dd
=143	=143	=143	=143	=143	=143	=143
4BB-	4B-	4g	4e	4BB-	4g	4e
8AA	8f	[8f	8cc	8AA	[8f	8cc
=144	=144	=144	=144	=144	=144	=144
8BB-	8d	8f]	8dd	8BB-	8f]	8dd
4C	4c	4e	4g	4C	4e	4g
=145	=145	=145	=145	=145	=145	=145
4.FF	4.A	4.f	4.f	4.FF	4.f	4.f
==	==	==	==	==	==	==
*-	*-	*-	*-	*-	*-	*-
!!!RWG: This file only contains pitch and duration data.
!!!RWG: Transposing instruments are not transposed.
!!!RWG: Durations of rests and tied notes may be interpreted.
!!!RWG: Key is interpreted using the Humdrum key tool.
!!!SCA: 
!!!YOR: Chrysander Edition
!!!AGN: concerto grosso
!!!AFT: stage1
!!!ENC: F. Bennion
!!!END: 1997/04/15
!!!AST: baroque
!!!YEC: Copyright 1994, Center for Computer Assisted Research in the Humanities
!!!YEM: Rights to all derivative electronic formats reserved.
!!!YEM: Refer to licensing agreement for further details.
!!!YEN: United States of America
!!!EED: W.B. Hewlett
!!!KEY: 673709004
!!!EMD: Converted from MuseData to Humdrum Aug 9, 1999, by Bret Aarden using muse2kern.
!!!VTS: 379910323
